X:1
T: Blue Bonnets
C:
R:Jig
Q:180
K:A
M:6/8
L:1/16
|:A6 A6|A2c2B2 A2F2E2|A2F2F2 F2c2d2|e2d2c2 d2c2B2|
A6 A6|A2c2B2 A2F2E2|d2e2f2 e2a2A2|A2B2c2 B4A2|
A2c2e2 e2c2A2|f2e2d2 c2B2A2|A2c2e2 f2g2a2|A2B2c2 B4A2|
A2c2e2 e2c2A2|f2e2d2 c2B2A2|d2e2f2 e2a2A2|A2B2c2 B4A2:|
